packages/icons/raw/imported/SportCSGO.svg

<svg width="32" height="32" viewBox="0 0 32 32" fill="none" xmlns="http://www.w3.org/2000/svg">
<path d="M13.3179 14.618C13.3271 14.3421 13.1109 14.1108 12.8349 14.1016C12.5589 14.0923 12.3277 14.3085 12.3184 14.5845L13.3179 14.618ZM13.9052 16.8255C14.1761 16.8794 14.4393 16.7036 14.4933 16.4328C14.5472 16.162 14.3714 15.8987 14.1006 15.8447L13.9052 16.8255ZM8.11654 10.3877C7.8404 10.3877 7.61654 10.6116 7.61654 10.8877C7.61654 11.1638 7.8404 11.3877 8.11654 11.3877V10.3877ZM13.5665 11.3877C13.8426 11.3877 14.0665 11.1638 14.0665 10.8877C14.0665 10.6116 13.8426 10.3877 13.5665 10.3877V11.3877ZM8.11644 11.851C7.84029 11.851 7.61644 12.0749 7.61644 12.351C7.61644 12.6272 7.84029 12.851 8.11644 12.851V11.851ZM13.5664 12.851C13.8425 12.851 14.0664 12.6272 14.0664 12.351C14.0664 12.0749 13.8425 11.851 13.5664 11.851V12.851ZM27.3129 11.6878L27.3094 12.1878H27.3129V11.6878ZM25.4393 11.6747H24.9393V12.1712L25.4358 12.1747L25.4393 11.6747ZM23.4065 11.0107H22.9065V11.5107H23.4065V11.0107ZM22.6332 9.87939L22.2083 9.61598L21.7351 10.3794H22.6332V9.87939ZM22.8078 9.1047L22.3112 9.16327L22.3122 9.17027L22.8078 9.1047ZM21.7603 8.09638L21.7086 8.59375L21.7146 8.59429L21.7603 8.09638ZM20.6254 9.87939V10.3794H21.5149L21.0525 9.61946L20.6254 9.87939ZM18.3726 9.87939L17.8741 9.91804L17.9099 10.3794H18.3726V9.87939ZM15.986 8.76655H15.486V9.26655H15.986V8.76655ZM14.477 8.75425V9.25425H14.977V8.75425H14.477ZM5.34805 10.2975V10.7975H5.84805V10.2975H5.34805ZM6.52035 13.1257H7.02035V12.6257H6.52035V13.1257ZM6.52035 19.5629L7.02007 19.5795L7.02035 19.5712V19.5629H6.52035ZM7.64276 21.3705L7.42786 21.822L7.43026 21.8231L7.64276 21.3705ZM8.49081 21.555H8.99081V21.055H8.49081V21.555ZM11.2719 21.555V21.055H10.7719V21.555H11.2719ZM11.7458 14.466V13.966H11.2458V14.466H11.7458ZM18.7863 14.466H19.2863V13.966H18.7863V14.466ZM18.7863 22.8154H18.2863V23.3154H18.7863V22.8154ZM20.9621 14.257V13.757H20.4621V14.257H20.9621ZM23.4065 13.47V12.97H22.9065V13.47H23.4065ZM25.4393 12.8429L25.4428 12.3429L24.9393 12.3393V12.8429H25.4393ZM27.3129 12.856L27.3094 13.356H27.3129V12.856ZM6.29332 16.8899C6.104 17.0909 6.11349 17.4074 6.31451 17.5967C6.51554 17.786 6.83198 17.7765 7.0213 17.5755L6.29332 16.8899ZM8.96682 15.5097C9.15614 15.3087 9.14665 14.9922 8.94562 14.8029C8.7446 14.6136 8.42816 14.6231 8.23884 14.8241L8.96682 15.5097ZM18.2811 14.4783C18.2811 14.7545 18.5049 14.9783 18.7811 14.9783C19.0572 14.9783 19.2811 14.7545 19.2811 14.4783H18.2811ZM19.2811 12.5109C19.2811 12.2347 19.0572 12.0109 18.7811 12.0109C18.5049 12.0109 18.2811 12.2347 18.2811 12.5109H19.2811ZM11.7456 18.323H13.6288V17.323H11.7456V18.323ZM13.6288 18.323C14.9832 18.323 16.0868 17.245 16.0868 15.8924H15.0868C15.0868 16.6794 14.4443 17.323 13.6288 17.323V18.323ZM16.0868 15.8924V14.4783H15.0868V15.8924H16.0868ZM12.8181 14.6013C12.3184 14.5845 12.3184 14.5847 12.3184 14.585C12.3184 14.585 12.3184 14.5853 12.3184 14.5854C12.3184 14.5857 12.3184 14.5861 12.3184 14.5864C12.3183 14.5872 12.3183 14.588 12.3183 14.5889C12.3182 14.5908 12.3182 14.593 12.3181 14.5955C12.318 14.6006 12.3179 14.6072 12.3179 14.6151C12.3178 14.631 12.3179 14.6523 12.3186 14.6784C12.3199 14.7305 12.3234 14.8024 12.3322 14.8883C12.3495 15.0583 12.3882 15.293 12.4759 15.5421C12.6529 16.0445 13.055 16.6561 13.9052 16.8255L14.1006 15.8447C13.7161 15.7682 13.5259 15.5129 13.4191 15.2098C13.365 15.0562 13.3389 14.9036 13.327 14.7869C13.3212 14.7295 13.319 14.6832 13.3182 14.653C13.3179 14.6379 13.3178 14.6271 13.3179 14.621C13.3179 14.6179 13.3179 14.6161 13.3179 14.6156C13.3179 14.6153 13.3179 14.6154 13.3179 14.6158C13.3179 14.616 13.3179 14.6163 13.3179 14.6167C13.3179 14.6169 13.3179 14.6171 13.3179 14.6173C13.3179 14.6174 13.3179 14.6176 13.3179 14.6177C13.3179 14.6178 13.3179 14.618 12.8181 14.6013ZM8.11654 11.3877H13.5665V10.3877H8.11654V11.3877ZM8.11644 12.851H13.5664V11.851H8.11644V12.851ZM28 11.8722C28 11.4911 27.6822 11.1878 27.3129 11.1878V12.1878C27.2181 12.1878 27.1421 12.1478 27.0928 12.0992C27.0436 12.0506 27 11.9726 27 11.8722H28ZM27.3164 11.1878L25.4428 11.1747L25.4358 12.1747L27.3094 12.1878L27.3164 11.1878ZM25.9393 11.6747V11.6378H24.9393V11.6747H25.9393ZM25.9393 11.6378C25.9393 11.0107 25.4219 10.5107 24.8032 10.5107V11.5107C24.883 11.5107 24.9393 11.5763 24.9393 11.6378H25.9393ZM24.8032 10.5107H23.4065V11.5107H24.8032V10.5107ZM23.9065 11.0107V10.5065H22.9065V11.0107H23.9065ZM23.9065 10.5065C23.9065 9.87944 23.3891 9.37939 22.7704 9.37939V10.3794C22.8502 10.3794 22.9065 10.445 22.9065 10.5065H23.9065ZM22.7704 9.37939H22.6332V10.3794H22.7704V9.37939ZM23.0582 10.1428C23.2476 9.83728 23.3581 9.45184 23.3035 9.03913L22.3122 9.17027C22.3324 9.32321 22.2933 9.47881 22.2083 9.61598L23.0582 10.1428ZM23.3044 9.04614C23.2137 8.2771 22.5716 7.6687 21.8059 7.59847L21.7146 8.59429C22.0214 8.62244 22.2773 8.8748 22.3113 9.16326L23.3044 9.04614ZM21.8119 7.59905C20.8192 7.49603 19.9383 8.25398 19.9383 9.25226H20.9383C20.9383 8.87332 21.2795 8.54918 21.7086 8.59371L21.8119 7.59905ZM19.9383 9.25226C19.9383 9.59736 20.0498 9.89536 20.1982 10.1393L21.0525 9.61946C20.9765 9.49451 20.9383 9.37443 20.9383 9.25226H19.9383ZM20.6254 9.37939H18.3726V10.3794H20.6254V9.37939ZM18.8711 9.84073C18.8283 9.28867 18.6194 8.87987 18.309 8.61293C18.0092 8.35512 17.6575 8.26655 17.3828 8.26655V9.26655C17.4574 9.26655 17.5663 9.29314 17.657 9.37112C17.737 9.43998 17.8485 9.5876 17.8741 9.91804L18.8711 9.84073ZM17.3828 8.26655H15.986V9.26655H17.3828V8.26655ZM16.486 8.76655V7.94268H15.486V8.76655H16.486ZM16.486 7.94268C16.486 7.41398 16.056 7 15.5371 7V8C15.5278 8 15.5146 7.9956 15.5041 7.98515C15.4933 7.97455 15.486 7.95835 15.486 7.94268H16.486ZM15.5371 7H14.926V8H15.5371V7ZM14.926 7C14.4071 7 13.977 7.41398 13.977 7.94268H14.977C14.977 7.95835 14.9698 7.97455 14.959 7.98515C14.9484 7.9956 14.9353 8 14.926 8V7ZM13.977 7.94268V8.75425H14.977V7.94268H13.977ZM14.477 8.25425H5.79701V9.25425H14.477V8.25425ZM5.79701 8.25425C5.27812 8.25425 4.84805 8.66823 4.84805 9.19693H5.84805C5.84805 9.2126 5.8408 9.2288 5.83005 9.2394C5.81945 9.24985 5.80633 9.25425 5.79701 9.25425V8.25425ZM4.84805 9.19693V10.2975H5.84805V9.19693H4.84805ZM5.34805 9.79747H4.93649V10.7975H5.34805V9.79747ZM4.93649 9.79747C4.43007 9.79747 4 10.2114 4 10.7278H5C5 10.7559 4.98804 10.7736 4.98044 10.7811C4.97286 10.7886 4.95822 10.7975 4.93649 10.7975V9.79747ZM4 10.7278V12.142H5V10.7278H4ZM4 12.142C4 12.9658 4.6795 13.6257 5.4977 13.6257V12.6257C5.21843 12.6257 5 12.4002 5 12.142H4ZM5.4977 13.6257H6.52035V12.6257H5.4977V13.6257ZM6.02062 19.5463C5.98897 20.4981 6.52755 21.3934 7.42787 21.822L7.85766 20.9191C7.31131 20.659 7.00183 20.128 7.02007 19.5795L6.02062 19.5463ZM7.43026 21.8231C7.76236 21.979 8.12225 22.055 8.49081 22.055V21.055C8.26074 21.055 8.04696 21.0079 7.85527 20.9179L7.43026 21.8231ZM7.99081 24.1557C7.99081 24.6229 8.38346 25 8.84001 25V24C8.8901 24 8.92576 24.0207 8.94631 24.041C8.96681 24.0612 8.99081 24.0995 8.99081 24.1557H7.99081ZM8.84001 25H10.9102V24H8.84001V25ZM10.9102 25C11.3792 25 11.7719 24.6229 11.7719 24.1434H10.7719C10.7719 24.0574 10.8403 24 10.9102 24V25ZM11.7719 24.1434V21.555H10.7719V24.1434H11.7719ZM11.2719 22.055C11.8033 22.055 12.2458 21.6287 12.2458 21.0877H11.2458C11.2458 21.0832 11.2468 21.0778 11.249 21.0726C11.2511 21.0679 11.2537 21.0645 11.256 21.0621C11.2609 21.0573 11.2674 21.055 11.2719 21.055V22.055ZM12.2458 21.0877V14.466H11.2458V21.0877H12.2458ZM11.7458 14.966H18.7863V13.966H11.7458V14.966ZM18.2863 14.466V22.8154H19.2863V14.466H18.2863ZM18.7863 23.3154C19.3281 23.3154 19.964 23.1065 20.4657 22.7866C20.9469 22.4798 21.4621 21.9647 21.4621 21.2783H20.4621C20.4621 21.4404 20.3197 21.6938 19.9281 21.9434C19.557 22.18 19.105 22.3154 18.7863 22.3154V23.3154ZM21.4621 21.2783V14.257H20.4621V21.2783H21.4621ZM20.9621 14.757H22.6083V13.757H20.9621V14.757ZM22.6083 14.757C23.3143 14.757 23.9065 14.1831 23.9065 13.47H22.9065C22.9065 13.6176 22.7753 13.757 22.6083 13.757V14.757ZM24.8032 13.97C25.4219 13.97 25.9393 13.4699 25.9393 12.8429H24.9393C24.9393 12.9044 24.883 12.97 24.8032 12.97V13.97ZM25.4358 13.3428L27.3094 13.356L27.3164 12.356L25.4428 12.3429L25.4358 13.3428ZM27.3129 13.356C27.6822 13.356 28 13.0526 28 12.6715H27C27 12.5712 27.0436 12.4931 27.0928 12.4446C27.1421 12.396 27.2181 12.356 27.3129 12.356V13.356ZM28 12.6715V11.8722H27V12.6715H28ZM7.0213 17.5755L8.96682 15.5097L8.23884 14.8241L6.29332 16.8899L7.0213 17.5755ZM19.2811 14.4783V12.5109H18.2811V14.4783H19.2811ZM6.02035 13.1257V19.5629H7.02035V13.1257H6.02035ZM7.99081 21.555V24.1557H8.99081V21.555H7.99081ZM23.4065 13.97H24.8032V12.97H23.4065V13.97Z" fill="black"/>
</svg>

<svg width="32" height="32" fill="none" xmlns="http://www.w3.org/2000/svg"><path d="M13.318 14.618a.5.5 0 0 0-1-.034l1 .034Zm.587 2.208a.5.5 0 0 0 .196-.981l-.196.98Zm-5.788-6.438a.5.5 0 0 0 0 1v-1Zm5.45 1a.5.5 0 0 0 0-1v1Zm-5.45.463a.5.5 0 0 0 0 1v-1Zm5.45 1a.5.5 0 1 0 0-1v1Zm13.746-1.163-.004.5h.004v-.5Zm-1.874-.013h-.5v.496l.497.004.003-.5Zm-2.032-.664h-.5v.5h.5v-.5Zm-.774-1.132-.425-.263-.473.763h.898v-.5Zm.175-.774-.497.058.001.007.496-.065ZM21.76 8.096l-.051.498h.006l.045-.498ZM20.625 9.88v.5h.89l-.463-.76-.427.26Zm-2.252 0-.499.039.036.461h.463v-.5Zm-2.387-1.112h-.5v.5h.5v-.5Zm-1.509-.013v.5h.5v-.5h-.5Zm-9.129 1.543v.5h.5v-.5h-.5Zm1.172 2.829h.5v-.5h-.5v.5Zm0 6.437.5.017v-.017h-.5Zm1.123 1.808-.215.451.002.001.213-.453Zm.848.184h.5v-.5h-.5v.5Zm2.78 0v-.5h-.5v.5h.5Zm.475-7.089v-.5h-.5v.5h.5Zm7.04 0h.5v-.5h-.5v.5Zm0 8.35h-.5v.5h.5v-.5Zm2.176-8.559v-.5h-.5v.5h.5Zm2.445-.787v-.5h-.5v.5h.5Zm2.032-.627.004-.5-.504-.004v.504h.5Zm1.874.013-.004.5h.004v-.5ZM6.293 16.89a.5.5 0 0 0 .728.686l-.728-.686Zm2.674-1.38a.5.5 0 0 0-.728-.686l.728.686Zm9.314-1.032a.5.5 0 1 0 1 0h-1Zm1-1.967a.5.5 0 1 0-1 0h1Zm-7.535 5.812h1.883v-1h-1.883v1Zm1.883 0c1.354 0 2.458-1.078 2.458-2.43h-1a1.44 1.44 0 0 1-1.458 1.43v1Zm2.458-2.43v-1.415h-1v1.414h1ZM12.818 14.6l-.5-.016v.01a.985.985 0 0 0 0 .083 2.864 2.864 0 0 0 .157.864c.178.502.58 1.114 1.43 1.284l.196-.981c-.385-.077-.575-.332-.682-.635a1.866 1.866 0 0 1-.1-.557l-.001-.032v-.005.001l-.5-.016Zm-4.701-3.213h5.45v-1h-5.45v1Zm0 1.463h5.45v-1h-5.45v1ZM28 11.872a.69.69 0 0 0-.687-.684v1a.312.312 0 0 1-.22-.089.318.318 0 0 1-.093-.227h1Zm-.684-.684-1.873-.013-.007 1 1.873.013.007-1Zm-1.377.487v-.037h-1v.037h1Zm0-.037c0-.627-.517-1.127-1.136-1.127v1c.08 0 .136.065.136.127h1Zm-1.136-1.127h-1.396v1h1.396v-1Zm-.896.5v-.504h-1v.504h1Zm0-.504c0-.628-.518-1.128-1.137-1.128v1c.08 0 .137.066.137.128h1ZM22.77 9.379h-.137v1h.137v-1Zm.288.764c.19-.306.3-.691.245-1.104l-.99.131a.678.678 0 0 1-.105.446l.85.527Zm.246-1.097a1.672 1.672 0 0 0-1.498-1.448l-.091.996c.306.028.562.28.596.57l.993-.118ZM21.812 7.6c-.993-.103-1.874.655-1.874 1.653h1c0-.379.341-.703.77-.658l.104-.995Zm-1.874 1.653c0 .345.112.643.26.887l.854-.52a.699.699 0 0 1-.114-.367h-1Zm.687.127h-2.252v1h2.252v-1Zm-1.754.462c-.043-.552-.252-.961-.562-1.228a1.435 1.435 0 0 0-.926-.346v1c.074 0 .183.026.274.104.08.069.192.217.217.547l.997-.077Zm-1.488-1.574h-1.397v1h1.397v-1Zm-.897.5v-.824h-1v.824h1Zm0-.824A.944.944 0 0 0 15.537 7v1a.05.05 0 0 1-.033-.015.062.062 0 0 1-.018-.042h1ZM15.537 7h-.611v1h.611V7Zm-.611 0a.944.944 0 0 0-.949.943h1a.062.062 0 0 1-.018.042.05.05 0 0 1-.033.015V7Zm-.949.943v.811h1v-.811h-1Zm.5.311h-8.68v1h8.68v-1Zm-8.68 0a.944.944 0 0 0-.949.943h1a.062.062 0 0 1-.018.042.05.05 0 0 1-.033.015v-1Zm-.949.943v1.1h1v-1.1h-1Zm.5.6h-.412v1h.412v-1Zm-.412 0a.939.939 0 0 0-.936.93h1a.075.075 0 0 1-.02.054.062.062 0 0 1-.044.016v-1Zm-.936.93v1.415h1v-1.414H4Zm0 1.415c0 .824.68 1.484 1.498 1.484v-1A.494.494 0 0 1 5 12.142H4Zm1.498 1.484H6.52v-1H5.498v1Zm.523 5.92a2.435 2.435 0 0 0 1.407 2.276l.43-.903a1.435 1.435 0 0 1-.838-1.34l-1-.033Zm1.41 2.277c.331.156.691.232 1.06.232v-1c-.23 0-.444-.047-.636-.137l-.425.905Zm.56 2.333c0 .467.392.844.849.844v-1c.05 0 .086.02.106.041a.16.16 0 0 1 .045.115h-1ZM8.84 25h2.07v-1H8.84v1Zm2.07 0a.86.86 0 0 0 .862-.857h-1A.14.14 0 0 1 10.91 24v1Zm.862-.857v-2.588h-1v2.588h1Zm-.5-2.088a.97.97 0 0 0 .974-.967h-1a.037.037 0 0 1 .01-.026.025.025 0 0 1 .016-.007v1Zm.974-.967v-6.622h-1v6.622h1Zm-.5-6.122h7.04v-1h-7.04v1Zm6.54-.5v8.35h1v-8.35h-1Zm.5 8.85c.542 0 1.178-.21 1.68-.53.48-.306.996-.821.996-1.508h-1c0 .162-.142.416-.534.665-.371.237-.823.372-1.142.372v1Zm2.676-2.038v-7.021h-1v7.021h1Zm-.5-6.521h1.646v-1h-1.646v1Zm1.646 0c.706 0 1.299-.574 1.299-1.287h-1a.298.298 0 0 1-.299.287v1Zm2.195-.787c.619 0 1.136-.5 1.136-1.127h-1c0 .061-.056.127-.136.127v1Zm.633-.627 1.873.013.007-1-1.873-.013-.007 1Zm1.877.013a.69.69 0 0 0 .687-.684h-1c0-.1.044-.179.093-.227a.312.312 0 0 1 .22-.089v1Zm.687-.684v-.8h-1v.8h1ZM7.021 17.575l1.946-2.066-.728-.686-1.946 2.066.728.686Zm12.26-3.098v-1.967h-1v1.967h1Zm-13.26-1.352v6.437h1v-6.437h-1Zm1.97 8.429v2.6h1v-2.6h-1Zm15.416-7.585h1.396v-1h-1.396v1Z" fill="#000"/></svg>
